X:271
T:Rolling in the Ryegrass 1 (reel)
T:The Shannon Breeze 
B:CRE2.208i (Ag Ionfairt sa tSeagal)
F:file ID: cre.2/271roll_rg1
M:C
R:reel
Q:180
K:D
A2AF DFAF|G2 (3BAG dGBG|(3ABA AF DFAF|GBAF EFDF|
A2AF DFAF|G2 (3BAG dGBG|FAA2 DFAF|GBAF EF D2||
ABde fdef|gefg (3ege dB|ABde faa2|afdf (3ege dB|
ABde fdef|(3gag fg edBd|ABde faa2|afdf (3ege dB||

%%%

